T: Green Garters
M: 4/4
L: 1/8
K: Dmaj
|: d2 fd Adfd | d2 fa gece |\ d2 fd Adfd |[1 eA (3Bcd egfe :|[2 eA (3Bcd ef (3gfe |||: a3 b afdf | a2 fd ef (3gfe |\
